X:1
T:Crucifix, 76.76 D
T:Crucifix, 76.76 D
T:Greek Melody
T:Public Domain Courtesy of the Cyber Hymnal™
C:Greek Melody
Z:Public Domain
Z:Courtesy of the Cyber Hymnal™
%%score ( 1 2 ) ( 3 4 )
L:1/8
Q:1/4=113
M:4/4
K:Eb
V:1 treble 
V:2 treble 
V:3 bass 
V:4 bass 
V:1
 (EF) | [EG]2 [EG]2 [EG]2 [EG]2 | [EG]4 [B,E]2 [CE]2 | [CF]2 [CF]2 [B,D]2 [B,D]2 | [B,E]6 (EF) | %5
 [EG]2 [EG]2 [EG]2 [EG]2 | [EG]4 [B,E]2 [CE]2 | [CF]2 [CF]2 [B,D]2 [B,D]2 | [B,E]6 [EB]2 | %9
 [Ee]2 [Ee]2 [Ed]2 [Ec]2 | [EB]4 [EG]2 [EG]2 | [FA]2 ([GB][FA]) [EG]2 ([FA][EG]) | [DF]6 (GA) | %13
 [EB]2 [EB]2 [EB]2 [EB]2 | (c2 d2) !fermata![Ee]2 [Ec]2 | [EB]2 [DA]2 [EG]2 [DF]2 | E6 |] %17
V:2
 E2 | x8 | x8 | x8 | x6 E2 | x8 | x8 | x8 | x8 | x8 | x8 | x8 | x6 E2 | x8 | E4 x4 | x8 | E6 |] %17
V:3
 (G,A,) | [E,B,]2 [E,B,]2 [E,B,]2 [E,B,]2 | [E,B,]4 [E,G,]2 [C,G,]2 | %3
 [A,,A,]2 [A,,A,]2 [B,,F,]2 [B,,F,]2 | [E,G,]6 (G,A,) | [E,B,]2 [E,B,]2 [E,B,]2 [E,B,]2 | %6
 [E,B,]4 [E,G,]2 [C,G,]2 | [A,,A,]2 [A,,A,]2 [B,,F,]2 [B,,F,]2 | [E,G,]6 [E,G,]2 | %9
 [E,G,]2 [E,G,]2 [E,B,]2 [E,A,]2 | [E,G,]4 [E,B,]2 [E,B,]2 | [B,,B,]2 [B,,B,]2 [B,,B,]2 [B,,B,]2 | %12
 [B,,B,]6 (B,A,) | [E,G,]2 [E,G,]2 [E,G,]2 [E,G,]2 | (A,2 B,2) !fermata![A,,C]2 [A,,A,]2 | %15
 [B,,G,]2 [B,,F,]2 [B,,B,]2 [B,,A,]2 | [E,G,]6 |] %17
V:4
 E,2 | x8 | x8 | x8 | x6 E,2 | x8 | x8 | x8 | x8 | x8 | x8 | x8 | x6 E,2 | x8 | A,,4 x4 | x8 | %16
 x6 |] %17

